X:147
T:Seventh of October. VWMLa.147
%%VWML:Anon2-3049-p88-0
F:http://www.vwml.org/record/Anon2/3049/p88
S:Anon. MS, late 18thC, Vaughan Williams Mem. Library
O:England;Yorkshire
Z:vmp/efdss.Simon Wilson. Reviewed PJH 2008.
M:2/4
L:1/8
Q:1/4=75
K:F
fF/G/ FG|ABcA|Bcde|!turn!fe/f/ cc|\
d/f/e/f/ g/f/e/f/|c/f/a/f/ AB|cBAG|{G}F4:|
|:[G,3E3c3]=B|cdef|efga|g>fee|\
f/g/a/f/ df|e/f/g/e/ ce|fdc=B|c4:|
|:"P"c>dcc|df!turn!f2|(eg).g.g|(fc)!turn!c2|\
dfeg|fcaB|cBAG|{G}F4:|
